X: 7951
T: Condon's Frolics
R: jig
M: 6/8
K: Adorian
|:eAB ~c2d|edc BAG|eAB ~c2d|~e2d eag|
eAB ~c2d|gdc BAB|GBd gdB|ABA A3:|
|:eaa egg|dec BAG|cGc dGd|~e2d efg|
eaa egg|dec BAB|GBd gdB|ABA A3:|

